!!!COM: Scarlatti, Domenico
!!!CDT: 1685-1757
!!!OTL: Sonata in C major, L.101, K.156
!!!SCT: K. 156
!!!SCT: L. 101
!!!OMD: Allegro ([quarter]=92)
**kern	**kern	**dynam
*staff2	*staff1	*staff1/2
*Icemba	*Icemba	*
*I"L.101 (K.156)	*I"L.101 (K.156)	*
*>[A,A1,A,A2,B,B]	*>[A,A1,A,A2,B,B]	*>[A,A1,A,A2,B,B]
*>norep[A,A2,B]	*>norep[A,A2,B]	*>norep[A,A2,B]
*>A	*>A	*>A
*clefF4	*clefG2	*
*k[]	*k[]	*
*C:	*C:	*
*met(c)	*met(c)	*
*M4/4	*M4/4	*
*MM92	*MM92	*
=1-	=1-	=1-
8C+	8r	.
8r	(16ggLL	p
.	16ffJJ	.
4r	8eeL	.
.	8ddJ	.
8r	8ccL)	.
(16gLL	(8b	<
16fJJ	.	.
8eL	8cc	.
8dJ	8ddJ	.
=2	=2	=2
8cL)	8eeL)	.
(16GL	(8b	.
16FJJ	.	.
8EL	8cc	.
8DJ	8ddJ	.
4.C)	8eeL)	f
.	(16cccL	.
.	16aaJJ	.
.	[4gg)	.
(8e	.	.
!!LO:LB:g=z
=3	=3	=3
8fL)	8ggL]	.
(8a	(16ffL	.
.	16ddJJ	.
8g	8ccL	.
.	[32bqq	.
8fJ	8bJt]	.
.	32aqLLL	.
.	32bqJJJ	.
4.e)	8cc'L)	.
.	(16cccL	p
.	16aaJJ	.
.	[4gg)	.
8E (8c	.	.
=4	=4	=4
*^	*^	*
8AL)	4F	4ryy	8ggL]	.
(8f	.	.	(16ffL	.
.	.	.	16ddJJ	.
8e	4G	4ryy	8ccL	.
.	.	.	[32bqq	.
8dJ)	.	.	8bt>J]	.
.	.	.	32aqLLL	.
.	.	.	32bqJJJ	.
4.C	4ryy	8rccc	4cc)	.
.	.	16aaLL	.	f
.	.	16ffJJ	.	.
.	4ryy	[4gg	8r	.
*clefG2	*clefG2	*	*	*
8cc'/	.	.	(16eeLL	.
.	.	.	16ccJJ	.
*v	*v	*	*	*
=5	=5	=5	=5
8b'L	2gg_	8dd'L)	.
8g'	.	(16bL	.
.	.	16gJJ	.
8e'	.	8cc'L)	.
8c'J	.	(16eeL	.
.	.	16ccJJ	.
4.G^	8ggL]	4dd)	.
.	(16aaL	.	p
.	16ffJJ	.	.
.	[4gg)	8r	.
8cc'/	.	(16eeLL	.
.	.	16ccJJ	.
!!LO:LB:g=z
=6	=6	=6	=6
8b'L	2gg_	8dd'L)	.
8g'	.	(16bL	.
.	.	16gJJ	.
8e'	.	8cc'L)	.
8c'J	.	(16eeL	.
.	.	16ccJJ	.
4.G^	8ggL]	4dd)	.
.	(16cccL	.	f
.	16aaJJ	.	.
.	[4bb-)	8r	.
8g'	.	(16ee-LL	.
.	.	16ccJJ	.
=7	=7	=7	=7
8f#'L	8bb-L]	4dd)	.
8d'J	(16aaL	.	.
.	16ff#JJ	.	.
8e-'L	4gg)	8r	.
8c'J	.	(16ee-LL	.
.	.	16ccJJ	.
4.d^	8r	4dd)	.
.	(16cccLL	.	p
.	16aaJJ	.	.
.	[4bb-)	8r	.
8g'	.	(16ee-LL	.
.	.	16ccJJ	.
=8	=8	=8	=8
8f#'L	8bb-L]	4dd)	.
8d'J	(16aaL	.	.
.	16ff#JJ	.	.
8e-'L	4gg)	8r	.
8c'J	.	(>16ee-LL	.
.	.	16ccJJ	.
8r	4ryy	4dd)	.
(8d 8f#iL	.	.	<
8en 8g	4ryy	(4ccT>	.
8f# 8aJ)	.	.	[[
.	.	32bqLLL	.
.	.	32ccqJJJ	.
*	*v	*v	*
!!LO:LB:g=z
=9	=9	=9
8r	(24ddLL)	f
.	24b	.
.	24eeJ	.
8g' 8b'L	[8ddJ)	.
8f#' 8a'	4dd]	.
8d' 8f#'J	.	.
*	*Xtuplet	*
8r	(24ddLL	p
.	24b	.
.	24ggJ	<
8g' 8b'L	[8ddJ	.
8f#' 8a'	4dd])	.
8d' 8f#'J	.	.
*clefF4	*	*
=10	=10	=10
8r	(24ddLL	.
.	24b	.
.	24bbJ	.
8G' 8B'L	[8ddJ)	.
8F#' 8A'	4dd]	.
8D' 8d'J	.	.
8r	(24ddLL	f
.	24b	.
.	24dddJ	.
8G' 8B'L	[8ddJ)	.
8F#' 8A'	4dd_	.
8D' 8d'J	.	.
=11	=11	=11
8G'L	16ddLL]	.
.	(32ccL	.
.	32ddJJ	.
(8c	16eeL	.
.	32ccL	.
.	32aJJJ	.
8d')	8b'L)	.
.	(32aqq	.
(8DJ	(8aJ)	.
.	32gqLLL	.
.	32aqJJJ	.
4GG)	8g')	.
.	(32bbqLLL	.
.	32cccqJJJ	.
.	8ddd)	.
4r	(16cccLL	.
.	32bbL	.
.	32aaJJ	.
.	16ggL	.
.	32ff#L	.
.	32eeJJJ	.
*clefG2	*	*
!!LO:LB:g=z
=12	=12	=12
8r	(24ddLL)	.
.	24b	.
.	24eeJ	.
8g' 8b'L	[8ddJ)	.
8f#' 8a'	4dd]	.
8d' 8f#'J	.	.
8r	(24ddLL	p
.	24b	<
.	24ggJ	.
8g' 8b'L	[8ddJ)	.
8f#' 8a'	4dd]	.
8d' 8f#'J	.	.
*clefF4	*	*
=13	=13	=13
8r	(24ddLL	.
.	24b	.
.	24bbJ	.
8G' 8B'L	[8ddJ	.
8F#' 8A'	4dd])	.
8D' 8d'J	.	.
8r	(24ddLL	f
.	24b	.
.	24dddJ	.
8G' 8B'L	[8ddJ)	.
8F#' 8A'	4dd_	.
8D' 8d'J	.	.
=14	=14	=14
8G'L	(16ddLL]	.
.	32ccL	.
.	32ddJJ	.
(8c	16eeL	.
.	32ccL	.
.	32aJJJ	.
8d')	8b'L)	.
.	(32aqq	.
(8DJ	(<8aTJ)	.
.	32gqLLL	.
.	32aqJJJ	.
8GG'L)	8g'L>)	.
8B'J	8dd'J	p
8r	(32eeLLL	.
.	32ccJJ	.
.	8.aJ)	.
*clefG2	*	*
8c' 8e'	.	.
!!LO:LB:g=z
=15	=15	=15
8r	(32ddLLL	.
.	32bJJ	.
.	8.gJ)	.
(8B 8dL	.	.
8c 8e	(8.aaTL	f
8d 8f#J	.	.
.	32ggLL	.
.	32aaJJJ	.
8G'L)	8bb'L)	.
8g'J	8dd'J	.
8r	(32eeLLL	p
.	32ccJJ	.
.	8.aJ)	.
8c' 8e'	.	.
=16	=16	=16
8r	(32ddLLL	.
.	32bJJ	.
.	8.gJ)	.
(8B 8dL	.	.
8c 8e	(8.aaTL	f
8d 8f#J)	.	.
.	32ggLL	.
.	32aaJJJ	.
8r	8gg)	.
*clefF4	*	*
8B'L	8d'	.
8c'	(16eLL	.
.	32f#L	.
.	32gJJ	.
8C'J	16aL	.
.	32bL	.
.	32ccJJJ	.
!!LO:LB:g=z
=17	=17	=17
*^	*	*
8r	8r	8gg'L)	.
(4G	(8BBL	8g'J	.
.	8C	(8.aTL	.
8F#)	8DJ)	.	.
.	.	32gLL	.
.	.	32aJJJ	.
2ryy	8r	8gg')	.
.	8B'L	8d'	.
.	8c'	(16eLL	.
.	.	32f#L	.
.	.	32gJJ	.
.	8C'J	16aL	.
.	.	32bL	.
.	.	32ccJJJ	.
=18	=18	=18	=18
8r	8r	8gg'L)	.
(4G	(8BBL	8g'J	.
.	8C	(8.aTL	.
8F#)	8DJ)	.	.
.	.	32gLL	.
.	.	32f#JJJ	.
2ryy	8r	8gg'L)	.
.	(8B 8dL	8g'J	.
.	8c 8e	(8.aTL	.
.	8A 8cJ	.	.
.	.	32gLL	.
.	.	32aJJJ	.
*v	*v	*	*
!!LO:LB:g=z
=19	=19	=19
*>A1	*>A1	*>A1
8B' 8d'L)	8gg'L)	.
8BB' 8B'	8g'J	.
8C' 8c'	(>8.aTL	.
8D' 8d'J	.	.
.	32gLL	.
.	32f#JJJ	.
8GG'L	8g')	.
(16GL	8r	.
16FnJ	.	.
8E')	4r	.
8D'J	.	.
=20:|!	=20:|!	=20:|!
*>A2	*>A2	*>A2
8B' 8d'L)	8gg'L)	.
8BB' 8B'	8g'J	.
8C' 8c'	(8.aTL	.
8D' 8d'J	.	.
.	32gLL	.
.	32f#JJJ	.
8GG'\ 8G'\	8g')	.
=!|:	=!|:	=!|:
*>B	*>B	*>B
8r	8dd'	p
8r	(24ffnLL	.
.	24ee	.
.	24ddJ	.
*clefG2	*	*
8a'	8cc'J)	.
=21	=21	=21
*	*^	*
8g#'L	8raa	8b'	.
(8a	4ee	(8ccL	f
8g#)	.	8b)	.
8fn'J	8dd'	8a'J	.
4.e^	8ee'L	4.g#	.
.	8ee'J	.	p
.	(24ffLL	.	.
.	24ee	.	.
.	24ddJ	.	.
8a'	8cc'J)	8re	.
!!LO:LB:g=z
=22	=22	=22	=22
8g#'L	8b	8r	.
(8a	4ee	(8ccL	f
8g#)	.	8b)	.
8fn'J	8dd	8a'J	.
4.e^	8ee'L	4.g#	.
.	8ee'J	.	p
.	(24ffLL	.	<
.	24ee	.	.
.	24ddJ	.	.
8d'	8gg#'J)	8b	.
=23	=23	=23	=23
(8cL	(<8ccL	4.a 4.aa	.
8d	8dd	.	.
8c)	8ccJ)	.	.
8B' 8g#'J	8dd' 8bb'	8ryy	.
4.A^ 4.a^	8cc'+ 8ccc'L	4ryy	.
.	8eeJ	.	.
.	(24ffLL	8ryy	.
.	24ee	.	.
.	24ddJ	.	.
8d'	8gg#'J)	8b'	.
=24	=24	=24	=24
(8cL	(<8eeL	4.a 4.aa	.
8d	8ff	.	.
8c)	8eeJ)	.	.
8B' 8g#'J	8dd' 8bb'	8ryy	.
4.A^ 4.a^	2ryy	8ee'> 8ccc'>L	f
.	.	8aa'>J	.
.	.	(>24cccLL	.
.	.	24bb	.
.	.	24aaJ	.
8b'/	.	8ggn'>J)	.
!!LO:LB:g=z
=25	=25	=25	=25
*^	*	*	*
8a' 8cc'L	4ryy	4r	8ff#'L	.
8g' 8b'J	.	.	8ee	.
4a	(8f#L	8rccc	(8dd#'	.
.	8eJ	[8aa^	8ccJ	.
8a	4.d#)	8aaL]	8b)	.
8rdd	.	8bb'J	8rg	.
8rdd	.	(24cccLL	4rg	.
.	.	24bb	.	.
.	.	24aaJ	.	.
8ryy	8b'>	8gg'J)	.	.
=26	=26	=26	=26	=26
8a' 8cc'L	4ryy	4r	8ff#'L	.
8g' 8b'J	.	.	8ee'	.
4a	(8f#L	8r	8dd#'	.
.	8eJ	[8aa^	(8ccJ	.
4a	8d#L	4aa]	8bL	.
.	8cn	.	8ee	.
4a	8B	4aa^	8dd#	.
.	8cJ	.	8eeJ	.
=27	=27	=27	=27	=27
4.a	4B)	8aa'	8dd#)	.
.	.	8ryy	8ff# (8aaL	.
.	4B	4ryy	8ee 8gg)	.
8f#' 8a'	.	.	8dd#' 8ff#'J	.
8e (8gL	4B	(24ggLL	8eeL	>
.	.	24ff#	.	.
.	.	24ggJJ	.	.
8d#' 8f#')	.	8ryy	8ff#' 8aa')	]
8e' 8g'	4B	4ryy	8ee' 8gg'	p
8f#' 8a'J	.	.	8dd#' 8ff#'J	.
!!LO:LB:g=z
=28	=28	=28	=28	=28
8e (8gL	4B	(24ggLL	8eeL	.
.	.	24ff#	.	.
.	.	24ggJJ	.	.
8d#' 8f#')	.	8ryy	8ff#' 8aa')	.
8e' 8g'	4B	4ryy	8ee' 8gg'	.
8f#' 8a'J	.	.	8dd#' 8ff#'J	.
4.g	4.e	2ryy	8ee' 8gg'L	.
.	.	.	8ee (8gg	f
.	.	.	8ddn 8ffn)	.
8e' 8g'	8A'	.	8cc#' 8ee'J	.
=29	=29	=29	=29	=29
8d (8fL	4A	(24ffLL	8ddL	>
.	.	24ee	.	.
.	.	24ffJJ	.	.
8c#' 8e')	.	8ryy	8ee' 8gg')	]
8d' 8f'	4A	4ryy	8dd' 8ff'	p
8e' 8g'J	.	.	8cc#' 8ee'J	.
8d (8fL	4A	(24ffLL	8ddL	.
.	.	24ee	.	.
.	.	24ffJJ	.	.
8c#' 8e')	.	8ryy	8ee' 8gg')	.
8d' 8f'	4A	4ryy	8dd' 8ff'	.
8e' 8g'J	.	.	8cc#' 8ee'J	.
=30	=30	=30	=30	=30
4.f	4.d	2ryy	8dd' 8ff'L	.
.	.	.	8dd (8ff	f
.	.	.	8ccn 8ee)	.
8d' 8f'	8G'	.	8b' 8dd'J	.
(8c 8eL	4G	(24eeLL	8ccL	>
.	.	24dd	.	.
.	.	24eeJJ	.	.
8B' 8d')	.	8ryy	8dd' 8ff')	]
8c' 8e'	4G	4ryy	8cc' 8ee'	p
8d' 8f'J	.	.	8b' 8dd'J	.
!!LO:LB:g=z
=31	=31	=31	=31	=31
(8c 8eL	4G	(24eeLL	8ccL	<
.	.	24dd	.	.
.	.	24eeJJ	.	.
8B' 8d')	.	8ryy	8dd' 8ff')	.
8c' 8e'	4G	4ryy	8cc' 8ee'	.
8d' 8f'J	.	.	8b' 8dd'J	.
8e'	8c'	2ryy	16cc' 16ee'LL	.
.	.	.	(32aaL	.
.	.	.	32ggJJ	.
8r	8r	.	16ffL	.
.	.	.	32eeL	.
.	.	.	32ddJJJ	.
4r	4r	.	16ccLL	.
.	.	.	32eeL	.
.	.	.	32ddJJ	.
.	.	.	16ccL	.
.	.	.	32bL	.
.	.	.	32aJJJ	.
*v	*v	*	*	*
*	*v	*v	*
*clefF4	*	*
=32	=32	=32
*^	*	*
*	*	*tuplet	*
8r	8r	(24gLL)	f
.	.	24e	.
.	.	24aJ	.
8e'	8c'L	[8gJ)	.
4d^	(8B	4g]	.
.	8GJ)	.	.
*	*	*Xtuplet	*
8r	8r	(24gLL	p
.	.	24e	.
.	.	24ccJ	.
8e'	8c'L	[8gJ)	.
4d^	(8B	4g]	.
.	8GJ)	.	<
!!LO:LB:g=z
=33	=33	=33	=33
8r	8r	(24gLL	.
.	.	24e	.
.	.	24eeJ	.
8e'	8c'L	[8gJ)	.
4d^	(8B	4g_	.
.	8GJ)	.	.
2ryy	(8EL	16gLL]	.
.	.	32fL	.
.	.	(32gJJ	.
.	8F	16aL	.
.	.	32gL	.
.	.	32aJJJ	.
.	8G	8.ddTL	.
.	8GGJ)	.	.
.	.	32ccLL	.
.	.	32ddJJJ	.
*clefG2	*	*	*
=34	=34	=34	=34
8r	8r	(24ggLL)	f
.	.	24ee	.
.	.	24aaJ	.
8e' 8g'	8c'L	[8ggJ)	.
4d^ 4g^	(8B	4gg]	.
.	8GJ)	.	.
8r	8r	(24ggLL	.
.	.	24ee	.
.	.	24cccJ	.
8e' 8g'	8c'L	[8ggJ)	.
4d^ 4g^	(8B	4gg]	.
.	8GJ)	.	.
!!LO:LB:g=z
=35	=35	=35	=35
8r	8r	(24ggLL	.
.	.	24ee	.
.	.	24eeeJ	.
8g'	8c' 8e'L	[8ggJ)	.
4d^ 4g^	(8B	4gg_	.
.	8GJ)	.	.
*clefF4	*	*	*
2ryy	(>8E 8cL	16ggLL]	.
.	.	(32ffL	.
.	.	32ggJJ	.
.	8F	16aaL	.
.	.	32ffL	.
.	.	32ddJJJ	.
.	8G'>)	8ee'L)	.
.	.	[32ddqq	.
.	(>8GGJ	(8ddTJ]	.
.	.	32ccqLLL	.
.	.	32ddqJJJ	.
=36	=36	=36	=36
2ryy	8C'L)	8cc'L)	.
.	8E' 8c'J	8gg'J	.
.	8r	(32aaLLL	p
.	.	32ffJJ	.
.	.	8.ddJ)	.
.	8F' 8B'	.	.
8r	8r	(32ggLLL	.
.	.	32eeJJ	.
.	.	8.ccJ)	mf
(4c	(8EL	.	.
.	8F	(8.dTL	.
8B)	8GJ	.	.
.	.	32cLL	.
.	.	32dJJJ	.
=37	=37	=37	=37
2ryy	8C'L)	8e'L)	.
.	8E' 8c'J	8gg'J	.
.	8r	(32aaLLL	p
.	.	32ffJJ	.
.	.	8.ddJ)	.
.	8F' 8B'	.	.
8r	8r	(32ggLLL	.
.	.	32eeJJ	.
.	.	8.ccJ)	.
4c	(8EL	.	.
!	!	!	!LO:DY:rj
.	8F	(8.dTL	mf
8re	8GJ	.	<
.	.	32cLL	.
.	.	32BJJJ	[[
!!LO:LB:g=z
=38	=38	=38	=38
2ryy	8C'L)	8c'L)	f
.	8E' 8c'J	8g'J	.
.	8r	(16aLL	.
.	.	32bL	.
.	.	32ccJJ	.
.	8F' 8c'	16ddL	.
.	.	32eeL	.
.	.	32ffJJJ	.
8r	8r	8ccc'L)	.
(4c	(8EL	8cc'J	.
.	8F	(8.ddTL	.
8B)	8GJ)	.	.
.	.	32ccLL	.
.	.	32ddJJJ	.
=39	=39	=39	=39
8r	8r	8ccc'L)	.
(4c	(8EL	8g'J	.
.	8F	(16aLL	.
.	.	32bL	.
.	.	32ccJJ	.
8B)	8GJ)	16ddL	.
.	.	32eeL	.
.	.	32ffJJJ	.
8r	8r	8ccc'L)	.
(4c	(8EL	8cc'J	.
.	8F	(8.ddTL	.
8B	8GJ	.	.
.	.	32ccLL	.
.	.	32ddJJJ	.
*v	*v	*	*
=40	=40	=40
8C' 8c'L))	8ccc'L)	.
8AA' 8A'	8cc'J	.
8FF' 8F'	(8.ddTL	.
8GG' 8G'J	.	.
.	32ccLL	.
.	32bJJJ	.
8CC' 8C'	8cc')	.
==:|!	==:|!	==:|!
*-	*-	*-
!!!RDF**kern: > = above
!!!RDF**kern: < = below
!!!RDF**kern: + = marked note, optional, color=silver
!!!RDF**kern: i = editorial accidental, paren
!!!verovio: beamFrenchStyle 1
!!!URL-vhv: https://verovio.humdrum.org/?file=scarlatti/sonatas/L101K156.krn
!!!URL-pdf: https://github.com/craigsapp/scarlatti-keyboard-sonatas/blob/master/reference-edition/L101K156.pdf
!!!URL-youtube: https://www.youtube.com/watch?v=loET7qOSgQQ Christoph Ullrich, piano
!!!URL-youtube: https://www.youtube.com/watch?v=E12nUbsmVuk Carlo Grante, piano
!!!URL-youtube: https://www.youtube.com/watch?v=0v8_qEuFD0E Pieter-Jan Belder, harpsichord
!!!PTL: Domenico Scarlatti: Opere complete per clavicembalo
!!!PED: Longo, Alessandro
!!!PPR: Ricordi
!!!PPP: Milan
!!!PDT: 1906-1913
!!!YEC: 2021 Craig Stuart Sapp
!!!YEM: Licence: (CC BY-NC-SA 4.0) https://creativecommons.org/licenses/by-nc-sa/4.0
!!!ENC: Craig Stuart Sapp
!!!END: 2005/08/08
!!!EED: Craig Stuart Sapp
!!!EEV: 2021/06/13
